X: 1
T:Old Joe Clark
L:1/8
R:reel
M:C|
K:A
|: "A"e2f2 =g2f2 | e-fed c2 cd | e2f2 =g2f2 | "G"e3 f- e2 cd |
  "A"e2f2 =g2f2 | e-fed c2 AB | c-BAB "E"B-AGB |\
[1 "A"A3 B-A2 cd :|[2 "A"A3 B-A2 cB ||
|: "A"A2 AB c-Bcd | e-fed c-BA2 | A2A(B cB)A2 | "G"=G6 c-B |
  "A"A2 A(B cB)cd | e-fed c-BAB | c-BAc |"E"B-AGB |\
[1 "A"A3 A-B2 cB :|[2 "A"A4 z4 |]
N:Fiddlers Fakebook pg 207 - abc by Peter Ostapenko 8/18/2007
N:A Major
